svg/hops.svg

<svg xmlns="http://www.w3.org/2000/svg" width="24" height="24" viewBox="0 0 24 24"><path d="M21 12s-8.5-2-8.5-10c0 0 8.5 0 8.5 10M3 12C3 2 11.5 2 11.5 2c0 8-8.5 10-8.5 10m9-5.5s1 2.16 3 4c-.24 3.66-3 5.5-3 5.5s-2.76-1.84-3-5.5c2-1.84 3-4 3-4m8.75 6.75S20 17 18 19c0 0-2.47-1.64-3.67-4.19.72-1.23 1.17-2.69 1.42-3.68 1.38 1.05 3 1.87 5 2.12m-5.25 5c-1 2-3.5 3.5-3.5 3.5s-2.5-1.5-3.5-3.5c0 0 1.09-.91 1.85-2.45.47.55 1.01.99 1.65 1.2.64-.21 1.18-.65 1.65-1.2.76 1.54 1.85 2.45 1.85 2.45m-12.25-5c2-.25 3.62-1.07 5-2.12.25.99.7 2.45 1.42 3.68C8.47 17.36 6 19 6 19c-2-2-2.75-5.75-2.75-5.75z"/></svg>

<?xml version="1.0" encoding="UTF-8"?><!DOCTYPE svg PUBLIC "-//W3C//DTD SVG 1.1//EN" "http://www.w3.org/Graphics/SVG/1.1/DTD/svg11.dtd"><svg xmlns="http://www.w3.org/2000/svg" xmlns:xlink="http://www.w3.org/1999/xlink" version="1.1" width="24" height="24" viewBox="0 0 24 24"><path d="M21,12C21,12 12.5,10 12.5,2C12.5,2 21,2 21,12M3,12C3,2 11.5,2 11.5,2C11.5,10 3,12 3,12M12,6.5C12,6.5 13,8.66 15,10.5C14.76,14.16 12,16 12,16C12,16 9.24,14.16 9,10.5C11,8.66 12,6.5 12,6.5M20.75,13.25C20.75,13.25 20,17 18,19C18,19 15.53,17.36 14.33,14.81C15.05,13.58 15.5,12.12 15.75,11.13C17.13,12.18 18.75,13 20.75,13.25M15.5,18.25C14.5,20.25 12,21.75 12,21.75C12,21.75 9.5,20.25 8.5,18.25C8.5,18.25 9.59,17.34 10.35,15.8C10.82,16.35 11.36,16.79 12,17C12.64,16.79 13.18,16.35 13.65,15.8C14.41,17.34 15.5,18.25 15.5,18.25M3.25,13.25C5.25,13 6.87,12.18 8.25,11.13C8.5,12.12 8.95,13.58 9.67,14.81C8.47,17.36 6,19 6,19C4,17 3.25,13.25 3.25,13.25Z" /></svg>
